X: 9772
T: Delvinside
R: strathspey
M: 4/4
K: Edorian
D||Ed (3cBA BEGA|Ed (3cBA DDFA|Ed (3cBA BEGg|f<d ec dDFA:|
E2BE cEBE|E2BE DDFA|E2BE cEGg|f<d ec dDFA|
E2BE cEBE|E2BE DDFA|1 EGFA GBdg|f<d ec dDFA:|
[2 dfeg fagb|f<d ec dDFA||

